X:1
T:Title
%%score { ( 1 4 ) | ( 2 3 ) }
L:1/8
Q:1/4=108
M:4/4
K:A
V:1 treble nm="Grand Piano"
V:4 treble 
V:2 bass 
V:3 bass 
V:1
 D2 FA d2 F=G | ABAF D4 | F2 FF E2 AA | GABc [A,CA]4 | D2 FA d2 FF | E2 EE B4 | d2 cB A2 dd | %7
w: J.~Lincoln~Hall * * * * *|||||||
 cdec [Fd]4 | F2 z2 z4 | A4 =G4 | c2- [E=Gc-]2 [EGc]2 [EG]2 | B4 A4 | A6 z2 | A4 =G4 | cccc d2 B2 | %15
w: ||||||||
 A6[K:bass] z2 | A6 z2 | A4 =G4 | c2- [E=Gc-]2 [EGc]2 [EG]2 | B4 A4 | %20
w: |||||
 [Fd][Fd][Fd][Fd] [Fd]2 [FA]2 | [DFd][DFd][DFd][DFd] [DFd]2 [F,B,DF]2 | EF=GA B2 [Gc]2 | %23
w: |||
 [Fd]6 z2 |] %24
w: |
V:2
 D,2 F,A, D2 F,=G, | A,B,A,F, D,4 | [D,A,D]2 [D,A,D][D,A,D] [E,A,C]2 [E,A,C][E,A,C] | %3
 [B,D][A,C][E,=G,D][E,G,E] A,,4 | D,2 F,A, D2 F,F, | E,2 E,E,[K:treble] [=G,B,E]4 | %6
 [G,B,^E]2 [G,B,E][G,DE] [A,DF]2 [A,DF][A,DF] | .E2 z2[K:bass] z4 | %8
 [D,A,D]2 [A,,A,]2 [D,A,]2 [A,,A,]2 | [E,A,C]2 [A,,A,]2 [D,A,C]2 [A,,A,]2 | %10
 [E,A,E]2 [A,,A,]2 [E,A,]2 [A,,A,]2 | [D,G,]2 D,2 D,2 D,2 | D,2 A,,2 D,2 A,,2 | %13
 [E,A,C]2 [A,,A,]2 [E,A,C]2 [A,,A,]2 | [E,A,E][E,A,E][E,A,E][E,A,E] [E,G,E]2 [E,G,D]2 | [A,C]6 z2 | %16
 [D,A,D]2 [A,,A,]2 [D,A,]2 [A,,A,]2 | [E,A,C]2 [A,,A,]2 [D,A,C]2 [A,,A,]2 | %18
 [E,A,E]2 [A,,A,]2 [E,A,]2 [A,,A,]2 | [D,G,]2 D,2 D,2 D,2 | %20
 [D,A,D][D,A,D][D,A,D][D,A,D] [D,A,D]2 [D,A,D]2 | %21
 [B,,F,B,][B,,F,B,][B,,F,B,][B,,F,B,] [B,,F,B,]2 B,,2 | E,F,=G,A, B,2 [A,,A,]2 | [D,A,]6 z2 |] %24
V:3
 x8 | x8 | x8 | E,2 z2 z4 | x8 | x4[K:treble] x4 | x8 | [A,=G]-[A,DG][A,CG][A,EG][K:bass] [D,D]4 | %8
 x8 | x8 | x8 | x8 | x8 | x8 | x8 | x8 | x8 | x8 | x8 | x8 | x8 | x8 | x8 | x8 |] %24
V:4
 x8 | x8 | x8 | x8 | x8 | x8 | x8 | x8 | A2- [DFA-]2 [DFA]2 [DF]2 | z2 C2 z2 C2 | =G2 z2 z4 | %11
 ^E2 [G,E]2 [A,F]2 [A,F]2 | [A,DF]2 [A,DF]2 [A,DF]2 [A,DF]2 | z2 C2 z2 C2 | x8 | %15
 z2[K:bass] =G,2 F,2 E,2 | F2 [DF]2 [DF]2 [DF]2 | z2 C2 z2 C2 | =G2 z2 z4 | %19
 ^E2 [G,E]2 [A,F]2 [A,F]2 | x8 | x8 | x8 | x8 |] %24

